X: 3239
T: Behind The Bush In The Garden
R: jig
M: 6/8
K: Aminor
M:12/8
|:c2A AGE c2A AGE|G2G G2E G3 E2E|
A2B c2d e2e e2d|1 c2A BAG A3 A2B:|2 c2A BAG A3 A2E||
|:A2B c2d e2e e2E|A2B c2d e3 A2E|
A2B c2d e2e e2d|1 c2A BAG A3 A2E:|2 c2A BAG A3 A2B||

